X: 193
T: Polska efter Omas Per
O: Transtrand, Dalarna
Z: Transcribed to abcby Jon Magnusson 080510
S:Efter [[!Omas Per]]
D: Perjos Lars och Mattias Helje
R: Polska
M: 3/4
L: 1/8
K: Dm
A|:d2 (3 A=B^c d>e|(3:2:4 f2f2df (3 e^ce|d>^c A>^c d>e|(3:2:4 f2f2df e>^c|
(3:2:3 dfa4 g>f|(3de^c A3A|d2 (3 A=B^c d>e|(3:2:4 f2f2df (3 e^ce|
d>^c A>^c d>e|(3:2:4 f2f2df e>^c|(3:2:3 dfa4 g>f|[1(3de^c d3A:|[2 (3de^c d4|]
|: A2 a2 g>f|d>e (3^cAc (3=BGB| A>a g>=b a>f|(3 de^c A4|
A3 a g>f|d>e (3^cAc (3=BGB|A>a g>=b a>f|(3 de^c d4:|
(:musicend:)

(:music:)
